X:1
T:James Gibb editions
T:Psalm 19 (Becker) - Schütz
%%score [ ( 1 2 ) ( 3 4 ) ]
L:1/8
Q:1/4=107
M:none
K:Eb
V:1 treble nm="Soprano Alto"
V:2 treble 
V:3 bass nm="Tenor Bass"
V:4 bass 
V:1
"^Cornelius Becker\n(1561-1604)""^Psalm 19, SWV 115""^Heinrich Schütz\n(1585-1672)" e2 f2 B2 e2 (de) c2 B4 | %1
w: ~Die Him- mel, Herr, prei\- * sen sehr|
 G2 c2 B3 A (GA) F2 E4 |[M:4/2] e2 e2 B2 e2 (dc) d2 c4 | d2 e2 f3 g (fe) f2 e8 |] %4
w: dein gött- li- che Macht * und Ehr,|auch die Fes- te rühmt * die Gnad',|die dein Hand ge- wir\- * ket hat.|
V:2
 G2 F2 E2 G2 G2 F2 F4 | E2 E2 E3 C E2 D2 E4 |[M:4/2] E2 C2 G2 G2 (GE) G2 G4 | %3
 G2 G2 B3 B (BG) B2 B8 |] %4
V:3
 B,2 B,2 G,2 C2 B,2 =A,2 B,4 | B,2 !courtesy!_A,2 G,3 A, (B,C) B,2 B,4 | %2
[M:4/2]"^2. Ein Tag sagts dem andern an, durch die Nacht wird's kundgetan,\nallen Sprachen wird's bekannt, Gotts Lob geht durch alle Land.\n\n3. Schön geht auf die liebe Sonn, bringet der Welt Freud und Wonn,\nGottes eingeborner Sohn kommt herfür aus seinem Thron.\n\n4. Er geht aus der Kammer sein, dem kön'glichen Saal so rein,\nGott von Art und Mensch ein Held sein Weg er zu laufen eilt.\n\n5. Sein Lauf kam vom Vater her und geht weiter zum Vater,\nfährt hinunter zu der Höll und wieder zu Gottes Stuhl.\n\n9. Herr, dein Wort uns reichlich lehrt und mit großem Lohn verehrt,\nso wir nun als treue Knecht in deiner Furcht bleiben recht." G,2 A,2 G,2 C2 (=B,C) !courtesy!=B,2 C4 | %3
 !courtesy!_B,2 C2 D3 E (DC) D2 E8 |] %4
V:4
 E,2 D,2 E,2 C,2 (G,E,) F,2 B,,4 | E,2 A,,2 E,3 F, (E,A,,) B,,2 E,4 | %2
[M:4/2] C,2 A,,2 E,2 C,2 G,A, G,2 C,4 | G,2 C2 !courtesy!_B,3 E, B,C B,2 E,8 |] %4

